X:112
T: Die Schlangenkoechin
N: Q1079C
O: Mitteleuropa, Deutschland
N: Melodievergleich zu Q0079E ff, anderes Lied.
R: geistlich, Marien - Ruf
M: 2/4
L: 1/16
K: D
D2 | =F2F2G2G2 | A2A2A4 |
G3AB2=c2 | BAB2A2
A2 | d2B2=c2A2 | G2=F2E4 |
G2GGG2G2 | A2B2A4 |
G2GGG2G2 | A2B2A4 |
G2=F2G2E2 | D4E4 | D4z2

@@@ Tune index: 1167
